icons-dark/mimetypes/16/application-x-ruby.svg

<?xml version="1.0" encoding="UTF-8" standalone="no"?>

<!-- Created with Inkscape (http://www.inkscape.org/) -->
<svg width="16" version="1.1" xmlns="http://www.w3.org/2000/svg" height="16" viewBox="0 0 16 16" xmlns:inkscape="http://www.inkscape.org/namespaces/inkscape">
 <defs id="defs4"/>
 <metadata id="metadata7"/>
 <path inkscape:label="Capa 1" inkscape:groupmode="layer" style="fill:#cf000f;color:#000000;stroke-width:2" id="path3829" d="M 6 2 L 6 4 L 7 4 L 7 2 L 6 2 z M 9 2 L 9 4 L 10 4 L 10 2 L 9 2 z M 12.876953 2.9941406 L 11.984375 4.5 L 12.859375 5 L 13.751953 3.4628906 L 12.876953 2.9941406 z M 3.1132812 3.0625 L 2.2695312 3.5625 L 3.1953125 5.0683594 L 4.0390625 4.5683594 L 3.1132812 3.0625 z M 4 5 L 2 7 L 8 14 L 14 7 L 12 5 L 4 5 z M 4.4375 6 L 7.5 6 L 7.5 7 L 3.4375 7 L 4.4375 6 z M 8.5 6 L 11.5625 6 L 12.5625 7 L 8.5 7 L 8.5 6 z M 4.15625 8 L 7.5 8 L 7.5 11.886719 L 4.15625 8 z M 8.5 8 L 11.84375 8 L 8.5 11.886719 L 8.5 8 z "/>
</svg>

<svg width="16" xmlns="http://www.w3.org/2000/svg" height="16" viewBox="0 0 16 16">
 <path fill="#723838" color="#000000" stroke-width="2" d="m6 2v2h1v-2zm3 0v2h1v-2zm3.877.994l-.893 1.506.875.5.893-1.537zm-9.764.068l-.844.5.926 1.506.844-.5zm.887 1.938l-2 2 6 7 6-7-2-2zm.438 1h3.063v1h-4.063zm4.063 0h3.063l1 1h-4.063zm-4.344 2h3.344v3.887zm4.344 0h3.344l-3.344 3.887z"/>
</svg>
